X:1
T: The Collier's Daughter
N:
C:
S:aka The Duke of Rutland's Delight
A:
O:
R:
M:4/4
K:Am
I:speed 200
%W:             A1
% voice 1 (1 lines, 33 notes)
K:Am
M:4/4
L:1/16
e2 d2 |c4 A4 A4 A4 |A8 E8 |E4 G8 G4 |B4 d8 e2 d2 |c4 A4 A4 A4 |A8 E8 |d2 c2 B2 A2 d2 c2 B2 A2 |c4 e8 e2 d2 |
%W:         A2
% voice 1 (1 lines, 31 notes)
c4 A4 A4 A4 |A8 E8 |E4 G8 G4 |B4 d8 e2 d2 |c4 A4 A4 A4 |A8 E8 |d2 c2 B2 A2 d2 c2 B2 A2 |c4 e8 ^f2 g2 |
%W:         B1
% voice 1 (1 lines, 38 notes)
a2 g2 ^f2 e2 d2 e2 f2 e2 |d8 g8 |d2 c2 B2 A2 G2 A2 B2 c2 |B8 d8 |c4 A4 B4 E4 |c4 A4 B4 E4 |a2 g2 ^f2 g2 a4 A4 |c4 e8 ^f2 g2 |
%W:         B2
% voice 1 (1 lines, 36 notes)
a2 g2 ^f2 e2 d2 e2 f2 e2 |d8 g8 |d2 c2 B2 A2 G2 A2 B2 c2 |B8 d8 |c4 A4 B4 E4 |c4 A4 B4 E4 |a2 g2 ^f2 g2 a4 A4 |c4 e8 ||
